X:1
T:Largo
T:Largo
T:Johann Sebastian Bach (1685-1750) 
T:Contrabass
T:Public domain - Transcribed by José Alexandre Lemos (2020)
C:Johann Sebastian Bach (1685-1750)
Z:Public domain - Transcribed by José Alexandre Lemos (2020)
L:1/8
M:4/4
K:D
V:1 bass transpose=-12 nm="Contrabass" snm="Cb."
V:1
 F,2- F,/(G,/A,/B,/) E,2- E,/(!4!F,/!1!G,/A,/) | %1
 D,(!4!D/!1!B,/) !2!G,2- G,/(!4!E/!2!C/!4!A,/) !1!G,(!2!F,/G,/) | %2
 (F,E,/D,/) z2 vD2- D/(!1!B,/!2!C/!4!D/) | !1!E,2- E,/(!4!^G,/!1!B,/!4!D/) !2!C2- C/(A,/F,/E,/) | %4
 D,2- D,/(F,/A,/!4!C/) !1!B,2- B,/(!4!^G,/!1!E,/D,/) | %5
 C,/(E,/^G,/A,/) A,2- A,/(!4!B,/!1!D/!4!F/) (!1!G,>!2!A,) |1 (A,2 A,) z z4 :|2 %7
 (A,2 A,) z v=C2- C/(A,/F,/E,/) || ^D,2- D,/(E,/F,/G,/) (A,/!2!B,/!4!=C/!2!^D/) (!4!FA,) | %9
 G,F,/E,/ !3!G2- G/(!4!F/!1!E/F/4!2!^D/4) !4!E2- | %10
 E/(D/=C/B,/) (!1!A,/!0!G,/)(!4!F,/!2!^D/) (!1!E/(3F/4E/4!1!^D/4)(!1!E/>F/) (F>E) | %11
 E3 z v!4!G,2- G,/(F,/E,/G,/) | F,2- F,/(D,/E,/F,/) (G,/A,/)B,/=C/ D/(C/4B,/4)C | %13
 (=CB,) z/ (E,/F,/G,/) (3(C,/B,,/!2!C,/)(3(!4!D,/B,,/!0!D,/) (3(!1!E,/D,/E,/)(3(!4!F,/E,/!2!F,/) | %14
 (3(!4!G,/F,/!0!G,/)!4!E- E/(F,/G,/E,/) (F,/A,/)(!4!D/!1!B,/) (!4!A,/G,/)(!2!C/D/) | %15
 (F,E,) z2 F,2- F,/(G,/A,/B,/) | E,2- E,/(!4!F,/!1!G,/A,/) D,(!4!D/!1!B,/) !2!G,2- | %17
 G,/(!4!E/!2!C/!4!A,/) !1!G,(!2!F,/G,/) (F,/A,/F,/D,/) =C,(B,,/C,/) | %18
 (B,,/^C,/)(C,/D,/) D,2- (D,/C,/)D,/B,,/ C,>D, | D,2- D,/(F,/B,/^G,/) (A,/D/)=G,/F,/ (E,>D,) | %20
 D,8 |] %21

